-----BEGIN PGP SIGNATURE-----

iQIzBAABCAAdFiEE3UYZ1WnbaptIi4JWRW59nlbjtw8FAmmIG5IACgkQRW59nlbj
tw/BQA/+MLZ+Op6tyUD+1hqNMH35e8+cUZGA9To4D+rA3keaU4RCeOX9/xoDERU4
kTEOJf6q1/KbTrm+hox79xNX6eroKjt+HvD6VHahoZwckUAOX/xt2Sqk+p165s1C
mqsEDr5TxHhAKttY+C/dbusW8tq/KOCyCIvewRGTkkrbuvscY5C+9lpkeItqEzQK
S5/AUMSIgo34qQH8ROQiFbt4dyT/lrgs/HdryDBAhBJwfnytAEb/umcex8Gz7+Ip
6P/iJR3uuaqEP9u4o3wKCgaOKB9OsfEeuJQcD4mqx4TNEjqRxayg+JnORK1vq7Qc
ugnzcrrQFfAc0uSEmVy7Xyte/SuPE7LC88iFyMxNWZRW+Er8nOKOEqRVtzKu336l
EOMD/rDFEgvYdxPm1VZ829Lnq8bIhJm0APFarLrve1q/z4QYRCzVA9LRhrYzBQlK
cL/8VO2r0vVXINy9Lb5p3X8AquXJsDncBRR3SQNq1i+hkLVuWi6DKHBy1Tna2Ryy
vFgk7qGV5H8l+qCWNeIEzXgh2j771rlCb61FKa9l5gX8PzOtnzPZQy0x92FX27L0
da7yjjGoqi7G34j+gm+houwt/ihkgkfu06/caFvusPKB1dCFnW97xL4H3FsMQon/
g41kjuMf5QP/+Gs2aU8PgUzjq7UnPd5ikUA1KcHqqKtFHzJEw5U=
=NF/e
-----END PGP SIGNATURE-----
