-----BEGIN PGP SIGNATURE-----

iQIzBAABCAAdFiEE3UYZ1WnbaptIi4JWRW59nlbjtw8FAmmIG6cACgkQRW59nlbj
tw80cw//UFXwxrdlgXHx1f2HICiS5VBv/x42JKHPxFxxu3o0/fP9PpEHEoJRXItF
bPxmBabp/3UiDdrO1VCyoPeomSq8f8loCm9sDhGl0u4uur1DTVbGylAy5/mJBJNK
CrJCSDn96NHslYIxyJ4lrnYicRnJIhXpMuwzWcync7Lmue44Ys1H6g6Tb+HTXciF
Wn5wDW4Dp6fmwhjyggqDeFx6afywARwRx8TmOB2naalaef9rQ5P8IJOIatDpDRjz
pUGfdixGFix7GK/e5g+vSnbsmnyOgjZLjibOLlliMg3XgDG738IdQJIcnOTEU9vJ
dAWO8f55q5HQFFmeUG9GR3zf4CMu6zlvSlsA1sPu57+W0oO0f54x0VMNdtygRk+X
MckJmwD1IpYV3TJndu2lVDY5yyajqvtvv83+1k1554FFlWQ7PDZflYa2TM0+E+R/
CQp+Owmo0P7t5bA8FVBfzvNCOR3usOX+KQ6+QvmUUauEg12coqMbGZ6ycgzSbT/O
/q+4zcPCK9QhLcvIuwiv2Tb450jgCFw00sHb90JOeOL/qN2HIoEmBCgaLzkbzd49
rceMw3BpGjnh3poDU4b3dRrJ3FZgj2KmHqIVPmPjISrOpp18Oo674pSfhXq49nP2
8PpZYWq43WvTF4C3iQXsDmy6uwNZahJ3OkHJBZpNV/Kke1NB/jo=
=w2UD
-----END PGP SIGNATURE-----
